X:1
T:Gute Nacht
T:Franz Lachner
T:Gute Nacht
T:CPDL - Creative Commons Attribution Non Commercial 3.0
T:CPDL - Creative Commons Attribution Non Commercial 3.0
T:CPDL - Creative Commons Attribution Non Commercial 3.0
T:CPDL - Creative Commons Attribution Non Commercial 3.0
T:CPDL - Creative Commons Attribution Non Commercial 3.0
T:CPDL - Creative Commons Attribution Non Commercial 3.0
T:CPDL - Creative Commons Attribution Non Commercial 3.0
C:Franz Lachner
Z:CPDL - Creative Commons Attribution Non Commercial 3.0
%%score [ ( 1 2 ) ( 3 4 ) ]
L:1/8
Q:1/4=80
M:2/4
K:G
V:1 treble-8 nm="Tenor"
V:2 treble-8 
V:3 bass nm="Bass"
V:4 bass 
V:1
"^Andantino quasi Allegretto"!pp! B | B>A Bc | !>!^c2 dg | fe dd | d3 B | B>A Bc | !>!^c2 dg | %7
w: So|sanft wie auf den|Zwei- gen die|Vög- lein schla- fen|nun, wie|sich die Blüm- chen|nei- gen im|
 fe d B/^c/ | d2 z d | dd d e/f/ | g2"^cresc." dd | dd d e/f/ | g2 z!f! g | f2 e2 | d>^c cg | %15
w: Schoß der Nacht zu *|ruh‘n, wie|En- gel nie- der *|stei- gen, den|Men- schen wohl zu *|tun, so|soll dein|Schlum- mer sein, so|
 f/e/ d/^c/ de | f z!>(! g2-!>)! | g2 fe | d>=c B z | z!p! g dd | d>B d z | z g dd | %22
w: sanft, * so * se- lig|rein, so|_ soll dein|Schlum- mer sein,|so sanft, so|se- lig rein,|so sanft, so|
 !>!=f2"^cresc." e!f!e | ed g^f | !fermata!g2 z ||!p! B | B>A Bc | !>!^c2 dg | fe dd | d2 z B | %30
w: se- lig, so|se- * * lig|rein.|So|wie der Mond dort|hel- le am|Fir- ma- men- te|steht, so|
 B>A Bc | !>!^c2 dg | fe d B/^c/ | d2 z d | dd d e/f/ | g2 dd |"^cresc." dd d e/f/ | %37
w: wie die kla- re|Quel- le hier|still vor- ü- ber- *|geht, wie|an ge- weih- ter *|Stel- le ein|brüns- ti- ges Ge- *|
 g2!>(! g2-!>)! | g2!p! fe | !>!d>^c cg | f/e/ d/^c/ de | f2!f!!>(! g2-!>)! | g2 fe | %43
w: bet, so|_ soll dein|Träu- men sein, so|lau- * ter * und so|rein, so|_ soll dein|
 !>!d>c B!p!g | dd dd | d2 z g | d"^cresc."d dd | (!>!=f2 e)!f!e | ed g^f | !fermata!g2 z ||!p! B | %51
w: Träu- men sein, so|lau- ter und so|rein, so|lau- ter und so|rein, _ so|lau- ter und so|rein.|Und|
 B>A Bc | !>!^c2 dg | fe dd | d2 z B | B>A Bc | !>!^c2 dg | fe d B/^c/ | d2 z d | dd d e/f/ | %60
w: wie so un- ter|Scher- zen süß|tö- nen- de Mu-|sik, wie|un- be- kannt mit|Schmer- zen des|Kin- des heit‘- rer *|Blick, wie|won- ne- voll im *|
 g2 dd | d"^cresc."d d e/f/ | g2 z!f! g | f2 e2 | d>^c cg | f/e/ d/^c/ de | f2!ff! g2- | %67
w: Her- zen der|ers- ten Lie- be *|Glück, soll|dein Er-|wa- chen sein, so|se- * lig * und so|rein, soll|
 g2!>(! fe!>)! | d>=c B!p!g | dd dd | d2 z g | d"^cresc."d d^d | e2!f! e2 | ed gf | g2!>(! g2!>)! | %75
w: _ dein Er-|wa- chen sein, so|se- lig und so|rein, so|se- lig und so|rein, so|se- lig und so|rein, so|
!p! g f/e/ d^c | d2!>(! e2!>)! |!pp! dB B^A | !fermata!B4 |] %79
w: se- lig * und so|rein, so|se- lig und so|rein.|
V:2
 G | G>F GA | ^A2 Bd | dd dc | B3 G | G>F GA | ^A2 BB | =AG FE | D2 x d | c/B/ A/G/ Fc | B2 Bd | %11
 c/B/ A/G/ Fc | B2 x B | ^c2 c2 | B>A Ae | d/^c/ B/A/ Bc | d x d2- | d2 ^de | A>A G x | x B Ac | %20
 B>B B x | x B AB | B2 cB | A2 c2 | B2 x || G | G>F GA | ^A2 Bd | dd dc | B2 x G | G>F GA | %31
 ^A2 BB | =AG FE | D2 x d | c/B/ A/G/ Fc | B2 Bd | c/B/ A/G/ Fc | B2 B2- | B2 BB | _B>A AA | %40
 AA AA | A2 d2- | d2 ^de | A>A Gd | B A/G/ A B/c/ | B2 x d | BB BB | (B2 c)B | AA Bc | B2 x || G | %51
 G>F GA | ^A2 Bd | dd dc | B2 x G | G>F GA | ^A2 BB | =AG FE | D2 x d | c/B/ A/G/ Fc | B2 Bd | %61
 c/B/ A/G/ Fc | B2 x B | ^c2 c2 | B>A Ae | d/^c/ B/A/ Bc | d2 d2- | d2 ^de | A>A Gd | %69
 B A/G/ A B/c/ | B2 x B | BB BB | c2 c2 | cc cc | B2 B2 | BB B^A | B2 B2 | BG GG | G4 |] %79
V:3
!pp! D, | D,>D, D,D, | !>!D,2 D,B, | A,G, F,A, | G,3 D, | D,>D, D,D, | !>!D,2 D, D,/E,/ | %7
 F,B, A,G, | F,2 z B, | A,/G,/ F,/E,/ D,A, | G,2"^cresc." G,B, | A,/G,/ F,/E,/ D,A, | G,2 z!f! G, | %13
 G,2 G,2 | G,>G, G,G, | G,G, G,G, | F, z!>(! B,2-!>)! | B,2 A,G, | D,>D, D,!p! z | z!p! G, F,A, | %20
 G,>G, G, z | z G, F,G, | !>!^G,2"^cresc." A,!f!=G, | (F,2 A,)D, | !fermata!D,2 z ||!p! D, | %26
 D,>D, D,D, | !>!D,2 D,B, | A,G, F,A, | G,2 z D, | D,>D, D,D, | !>!D,2 D, D,/E,/ | F,B, A,G, | %33
 F,2 z B, | A,/G,/ F,/E,/ D,A, | G,2 G,B, |"^cresc." A,/G,/ F,/E,/ D,A, | G,2!>(! G,2-!>)! | %38
 G,2!p! G,G, | !>!G,>G, G,^C, | D,/E,/ F,/G,/ F,E, | D,2!f!!>(! B,2-!>)! |!p! B,2 A,G, | %43
 !>!D,>D, D,!p!B, | G, F,/E,/ F, G,/A,/ | G,2 z B, | G,"^cresc."G, G,G, | (!>!^G,2 A,)!f!=G, | %48
 F,F, G,A, | !fermata!G,2 z ||!p! D, | D,>D, D,D, | !>!D,2 D,B, | A,G, F,A, | G,2 z D, | %55
 D,>D, D,D, | !>!D,2 D, D,/E,/ | F,B, A,G, | F,2 z B, | A,/G,/ F,/E,/ D,A, | G,2 G,B, | %61
 A,/G,/"^cresc." F,/E,/ D,A, | G,2 z!f! G, | G,2 G,2 | G,>G, G,G, | G,G, G,G, | F,2!ff! B,2- | %67
!ff! B,2!>(! A,G,!>)! | D,>D, D,!p!G, | G, F,/E,/ F, G,/A,/ | G,2 z G, | G,G,"^cresc." G,=F, | %72
 E,2!f! A,G, | G,^F, B,A, | G,2!>(! G,2!>)! |!p! G,G, G,G, | G,2!>(! G,2!>)! | %77
!pp! G, F,/E,/ D,^C, | !fermata!D,4 |] %79
V:4
 G,, | G,,>G,, G,,G,, | G,,2 G,,B,, | D,3 D, | D, B,,/A,,/ G,,G,, | G,,>G,, G,,G,, | G,,2 G,,G,, | %7
w: |||Vög- lein|schla- fen * nun, *|||
 A,,3 A, | A, F,/E,/ D,D, | D,D, D,D, | D,/C,/B,,/A,,/ G,, G,,/B,,/ | D,3 D, | %12
w: Schoß der|Nacht zu * ruh‘n, *|||Men- schen|
 D,/C,/ B,,/A,,/ G,,G,, | A,,2 A,,2 | A,,>A,, A,,A,, | A,,A,, A,,A,, | D, x z2 | !>!B,,2 B,,C, | %18
w: wohl * zu * tun, *|||||so * *|
 F,,>F,, G,,G, | D,3 D, | D,/C,/ B,,/A,,/ G,,G, | D,3 D, | D,2 D,D, | D,2 D,2 | G,,2 x || G,, | %26
w: * * * so|sanft, so|se- * lig * rein, so|sanft, *||se- lig|||
 G,,>G,, G,,G,, | G,,2 G,,B,, | D,3 D, | D, B,,/A,,/ G,,G,, | G,,>G,, G,,G,, | G,,2 G,,G,, | %32
w: ||Fir- ma-|men- te * steht, *|||
 A,,3 A, | A, F,/E,/ D,D, | D,D, D,D, | D,/C,/B,,/A,,/ G,, G,,/B,,/ | D,4- | D,/C,/B,,/A,,/ G,, z | %38
w: still vor-|ü- ber- * geht, *|||brüns-|* ti- ges Ge- bet,|
 E,2 E,E, | A,,>A,, A,,A,, | B,,/^C,/ D,/E,/ D,C, | D,2 z2 | B,,2 B,,=C, | F,,>F,, G,, G,,/B,,/ | %44
w: so * *||||so * *||
 D,D, D,D, | D,G, D,2- | D,D, D,D, | D,3 D, | D,D, D,D, | G,,2 x || G,, | G,,>G,, G,,G,, | %52
w: |* so lau-|* ter * *||||||
 G,,2 G,, G,,/B,,/ | D,4- | D,/C,/B,,/A,,/ G,,G,, | G,,>G,, G,,G,, | G,,2 G,,G,, | A,,3 A,, | %58
w: |tö-|* nen- de Mu- sik, *|||Kin- des|
 A,/G,/ F,/E,/ D,D, | D,D, D,D, | D,/C,/B,,/A,,/ G,, G,,/B,,/ | D,3 D, | D,/C,/ B,,/A,,/ G,,G,, | %63
w: heit‘- * rer * Blick, *|||ers- ten|Lie- * be * Glück, *|
 A,,2 A,,2 | A,,>A,, A,,A,, | A,,A,, A,,A,, | D,2 z2 | B,,2 B,,C, | F,,>F,, G,, G,,/B,,/ | %69
w: ||||soll * *||
 D,D, D,D, | D,G, D, D,/E,/ | =F,D, B,,G,, | C,2 A,,2 | D,D, D,D, | G,,2 G,,2 | G,,G,, G,,G,, | %76
w: |* so se- lig *|und _ so _|rein, *||||
 G,,2 G,,2 | G,,G,, G,,G,, | G,,4 |] %79
w: |||

